assets/efishery/bos-juragan-tambak-fill.svg

<svg width="24" height="25" viewBox="0 0 24 25" fill="none" xmlns="http://www.w3.org/2000/svg">
<path fill-rule="evenodd" clip-rule="evenodd" d="M10.75 2.27344C8.67893 2.27344 7 3.95237 7 6.02344V8.02344C7 10.0945 8.67893 11.7734 10.75 11.7734C12.8211 11.7734 14.5 10.0945 14.5 8.02344V6.02344C14.5 3.95237 12.8211 2.27344 10.75 2.27344ZM8.5 6.02344C8.5 4.91404 9.30292 3.99217 10.3593 3.80723C10.1789 4.25809 9.90348 4.78725 9.53935 5.24242C9.22574 5.63443 8.8788 5.93401 8.5 6.10671V6.02344ZM11.6625 4.57854C11.7402 4.40024 11.8071 4.22843 11.8633 4.06773C12.1986 4.259 12.4799 4.53402 12.6788 4.86429C12.2731 4.90242 12.0087 4.81199 11.8425 4.71432C11.7719 4.67286 11.7123 4.62612 11.6625 4.57854ZM10.9193 5.9029C10.8527 5.99646 10.7831 6.08886 10.7107 6.17946C10.1853 6.83619 9.44946 7.46285 8.5 7.6868V8.02344C8.5 9.26608 9.50736 10.2734 10.75 10.2734C11.9926 10.2734 13 9.26608 13 8.02344V6.33613C12.2281 6.44594 11.5854 6.30308 11.0825 6.00756C11.0258 5.97422 10.9714 5.93925 10.9193 5.9029Z" fill="#1D1D1D"/>
<path d="M4.5 15.0234C4.5 13.7808 5.50736 12.7734 6.75 12.7734H6.83612C6.99495 12.9972 7.23417 13.2906 7.56423 13.584C8.23457 14.1799 9.28041 14.7734 10.75 14.7734C12.2196 14.7734 13.2654 14.1799 13.9358 13.584C14.2658 13.2906 14.505 12.9972 14.6639 12.7734H14.75C15.9926 12.7734 17 13.7808 17 15.0234V15.5234C17 15.9377 17.3358 16.2734 17.75 16.2734C18.1642 16.2734 18.5 15.9377 18.5 15.5234V15.0234C18.5 12.9524 16.8211 11.2734 14.75 11.2734H14.25C13.9677 11.2734 13.7094 11.432 13.5815 11.6834L13.5787 11.6887C13.5748 11.6958 13.5673 11.7094 13.556 11.7286C13.5333 11.7671 13.4958 11.8274 13.4427 11.9024C13.3359 12.0532 13.1697 12.258 12.9392 12.4629C12.4846 12.867 11.7804 13.2734 10.75 13.2734C9.71959 13.2734 9.01543 12.867 8.56077 12.4629C8.33029 12.258 8.16414 12.0532 8.05733 11.9024C8.00421 11.8274 7.96668 11.7671 7.94401 11.7286C7.93269 11.7094 7.92516 11.6958 7.92131 11.6887L7.91849 11.6834C7.79062 11.432 7.53235 11.2734 7.25 11.2734H6.75C4.67893 11.2734 3 12.9524 3 15.0234V19.0234C3 19.4377 3.33579 19.7734 3.75 19.7734H9.75C10.1642 19.7734 10.5 19.4377 10.5 19.0234C10.5 18.6092 10.1642 18.2734 9.75 18.2734H4.5V15.0234Z" fill="#1D1D1D"/>
<path fill-rule="evenodd" clip-rule="evenodd" d="M17.2885 16.5234C16.2954 16.5234 15.4024 16.8092 14.7425 17.175C14.5795 17.2654 14.4228 17.365 14.2771 17.4726L13.0964 16.7146C12.7332 16.4814 12.2698 16.4604 11.8866 16.6579C11.5014 16.8564 11.25 17.2501 11.25 17.6901V20.3568C11.25 20.7968 11.5014 21.1905 11.8866 21.389C12.2698 21.5865 12.7332 21.5654 13.0964 21.3322L14.2771 20.5743C14.4228 20.6819 14.5795 20.7815 14.7425 20.8719C15.4024 21.2376 16.2954 21.5234 17.2885 21.5234C18.1955 21.5234 19.0756 21.3489 19.7731 21.013C20.3897 20.7162 21.25 20.0842 21.25 19.0234C21.25 17.9627 20.3897 17.3307 19.7731 17.0338C19.0756 16.698 18.1955 16.5234 17.2885 16.5234ZM19.0192 18.3568C18.8281 18.3568 18.6731 18.506 18.6731 18.6901C18.6731 18.8742 18.8281 19.0234 19.0192 19.0234C19.2104 19.0234 19.3654 18.8742 19.3654 18.6901C19.3654 18.506 19.2104 18.3568 19.0192 18.3568Z" fill="#1D1D1D"/>
</svg>

<svg viewBox="0 0 24 25" xmlns="http://www.w3.org/2000/svg">
  <path fill-rule="evenodd" clip-rule="evenodd" d="M10.75 2.273A3.75 3.75 0 0 0 7 6.023v2a3.75 3.75 0 0 0 7.5 0v-2a3.75 3.75 0 0 0-3.75-3.75zM8.5 6.023a2.25 2.25 0 0 1 1.86-2.216c-.181.451-.457.98-.82 1.435-.314.392-.661.692-1.04.865v-.084zm3.162-1.444c.078-.179.145-.35.201-.511.336.191.617.466.816.796-.406.038-.67-.052-.837-.15a.975.975 0 0 1-.18-.135zm-.743 1.324a6.239 6.239 0 0 1-.208.276c-.526.657-1.262 1.284-2.211 1.508v.336a2.25 2.25 0 0 0 4.5 0V6.336c-.772.11-1.415-.033-1.918-.328a2.498 2.498 0 0 1-.163-.105z"/>
  <path d="M4.5 15.023a2.25 2.25 0 0 1 2.25-2.25h.086c.159.224.398.518.728.811.67.596 1.716 1.19 3.186 1.19s2.515-.594 3.186-1.19c.33-.293.569-.587.728-.81h.086a2.25 2.25 0 0 1 2.25 2.25v.5a.75.75 0 1 0 1.5 0v-.5a3.75 3.75 0 0 0-3.75-3.75h-.5a.75.75 0 0 0-.668.41l-.003.005-.023.04a3.347 3.347 0 0 1-.617.734c-.454.404-1.159.81-2.189.81s-1.735-.406-2.19-.81a3.348 3.348 0 0 1-.616-.734 1.305 1.305 0 0 1-.023-.04l-.003-.006a.75.75 0 0 0-.668-.41h-.5A3.75 3.75 0 0 0 3 15.023v4c0 .415.336.75.75.75h6a.75.75 0 1 0 0-1.5H4.5v-3.25z"/>
  <path fill-rule="evenodd" clip-rule="evenodd" d="M17.288 16.523c-.993 0-1.886.286-2.546.652-.163.09-.32.19-.465.298l-1.18-.758a1.215 1.215 0 0 0-1.21-.057 1.164 1.164 0 0 0-.637 1.032v2.667c0 .44.251.834.637 1.032.383.198.846.176 1.21-.057l1.18-.758c.146.108.303.207.466.298.66.366 1.552.651 2.545.651.907 0 1.788-.174 2.485-.51.617-.297 1.477-.929 1.477-1.99 0-1.06-.86-1.692-1.477-1.99-.697-.335-1.578-.51-2.485-.51zm1.731 1.834a.34.34 0 0 0-.346.333.34.34 0 0 0 .346.333.34.34 0 0 0 .346-.333.34.34 0 0 0-.346-.333z"/>
</svg>
